X: 187
T:De profundis clamavi / A custodia
N: Derived from Jos1511-De_profundis_clamavi.krn
C: Josquin des Prez
%%abc-version 2.0
%%abcx-abcm2ps-target-version 5.9.1 (29 Sep 2008)
%%abc-creator hum2abc beta
%%abcx-conversion-date 2019/02/12 16:15:47
%%abc-edited-by Jesse Rodin
%%abc-edited-by Will Watson 15/12/2011, text underlay: Peter Pesic 2014/06/14
%%abcx-initial-encoding-date 2012/12/15/
%%humdrum-veritas 594998072
%%humdrum-veritas-data 2527175118
%%linebreak <none>
%%barnumbers 0
L: 1/4
M: 2/1
Q: 1/2=120
%%staves [1 2 3 4]
V: 1 clef=treble
V: 2 clef=treble-8
V: 3 clef=treble-8
V: 4 clef=bass
K: C
[V:1] E8- | 
[V:2] z4A4- | 
[V:3] z8 | 
[V:4] z8 | 
[V:1] E4C4 | 
[V:2] A8 | 
[V:3] z8 | 
[V:4] z8 | 
[V:1] D4E4- | 
[V:2] F4G4 | 
[V:3] z8 | 
[V:4] z8 | 
[V:1] E2A,2A,4- | 
[V:2] A6D2 | 
[V:3] z8 | 
[V:4] z8 | 
[V:1] A,4F4 | 
[V:2] D8 | 
[V:3] z8 | 
[V:4] z8 | 
[V:1] F8 | 
[V:2] z4d4 | 
[V:3] z8 | 
[V:4] z8 | 
[V:1] E8 | 
[V:2] c2A3GG2 | 
[V:3] z8 | 
[V:4] z8 | 
[V:1] E4D2C2 | 
[V:2] AGc2B2A2- | 
[V:3] z8 | 
[V:4] z8 | 
[V:1] B,4A,2C2- | 
[V:2] A2^G2A4 | 
[V:3] E8- | 
[V:4] z4A,,4- | 
[V:1] CDE4DC | 
[V:2] c6B2 | 
[V:3] E4C4 | 
[V:4] A,,8 | 
[V:1] F3EEDD2- | 
[V:2] A4G2F2 | 
[V:3] D4E4- | 
[V:4] F,,4G,,4 | 
[V:1] D2^CB,C2D2 | 
[V:2] E6D2 | 
[V:3] E2C2A,4- | 
[V:4] A,,6D,,2 | 
[V:1] D8- | 
[V:2] D8 | 
[V:3] A,4F4 | 
[V:4] D,,8 | 
[V:1] D8 | 
[V:2] z8 | 
[V:3] F8 | 
[V:4] z4D,4 | 
[V:1] z8 | 
[V:2] z8 | 
[V:3] E8 | 
[V:4] C,2A,,3G,,G,,2 | 
[V:1] z8 | 
[V:2] z8 | 
[V:3] E4D2C2 | 
[V:4] A,,G,,C,2B,,2A,,2- | 
[V:1] z4C4- | 
[V:2] z4z2A2- | 
[V:3] B,4A,4 | 
[V:4] A,,2^G,,2A,,4 | 
[V:1] C2C2C3D | 
[V:2] A2A2A4- | 
[V:3] F6F2 | 
[V:4] z2F,,3G,,A,,B,, | 
[V:1] E4z2F2 | 
[V:2] A4z4 | 
[V:3] E2E2A4 | 
[V:4] C,2C,2F,,2F,,2 | 
[V:1] G4G4- | 
[V:2] c4c4 | 
[V:3] G4z2G2- | 
[V:4] C,4C,3D, | 
[V:1] G2F2G2F2- | 
[V:2] c6d2 | 
[V:3] G2A2G2A2- | 
[V:4] E,2F,2E,2D,2- | 
[V:1] FEE4D2 | 
[V:2] B2c2A4 | 
[V:3] AGE2F4 | 
[V:4] D,2C,2D,4 | 
[V:1] E8- | 
[V:2] z4A4 | 
[V:3] E8- | 
[V:4] A,,8- | 
[V:1] E8- | 
[V:2] c3dB4 | 
[V:3] E8 | 
[V:4] A,,4z4 | 
[V:1] E8 | 
[V:2] A2c4BA | 
[V:3] z4E4- | 
[V:4] A,,8 | 
[V:1] z8 | 
[V:2] G2A4^G2 | 
[V:3] E4G4 | 
[V:4] C,4B,,4 | 
[V:1] z8 | 
[V:2] A4z4 | 
[V:3] F4E4 | 
[V:4] A,,4C,4- | 
[V:1] z8 | 
[V:2] z8 | 
[V:3] G8 | 
[V:4] C,4G,,4 | 
[V:1] z8 | 
[V:2] z8 | 
[V:3] D4z2G2 | 
[V:4] z2D,2E,3C, | 
[V:1] z8 | 
[V:2] z8 | 
[V:3] A3Bc2d2- | 
[V:4] F,8 | 
[V:1] z4D4 | 
[V:2] z8 | 
[V:3] dcc4B2 | 
[V:4] E,3D,/C,/D,4 | 
[V:1] G8 | 
[V:2] z8 | 
[V:3] c8- | 
[V:4] C,8- | 
[V:1] G4z2E2- | 
[V:2] z4E4 | 
[V:3] c8- | 
[V:4] C,8 | 
[V:1] E2E2E2E2 | 
[V:2] A8 | 
[V:3] c8 | 
[V:4] z4A,,4 | 
[V:1] F8- | 
[V:2] A4z2A2- | 
[V:3] z4A4 | 
[V:4] D,8 | 
[V:1] F4E4 | 
[V:2] A2A2A2A2 | 
[V:3] d4c4 | 
[V:4] D,4z4 | 
[V:1] D2F3GAF | 
[V:2] B4A4 | 
[V:3] F3FF2F2 | 
[V:4] D,3D,D,2D,2 | 
[V:1] _B2A3GG2- | 
[V:2] z2d3Bc2 | 
[V:3] F4G4 | 
[V:4] D,4E,4 | 
[V:1] G2^FEF4 | 
[V:2] d8 | 
[V:3] A8 | 
[V:4] D,8 | 
[V:1] G8 | 
[V:2] B8 | 
[V:3] G8- | 
[V:4] G,,8- | 
[V:1] z4D4 | 
[V:2] z8 | 
[V:3] G8 | 
[V:4] G,,8 | 
[V:1] G4G2G2 | 
[V:2] G4c4 | 
[V:3] z8 | 
[V:4] z8 | 
[V:1] G3AB4 | 
[V:2] c2c2d4 | 
[V:3] z8 | 
[V:4] z4G,,4 | 
[V:1] E8 | 
[V:2] c4e4- | 
[V:3] E4G4 | 
[V:4] C,4C,2C,2 | 
[V:1] G4G4 | 
[V:2] e4e4 | 
[V:3] G6G2 | 
[V:4] C,3D,E,4 | 
[V:1] c4B4 | 
[V:2] e4e4 | 
[V:3] A4G4 | 
[V:4] A,,4E,4- | 
[V:1] B8 | 
[V:2] e8- | 
[V:3] z2G4G2 | 
[V:4] E,4E,4 | 
[V:1] A4A4 | 
[V:2] e8- | 
[V:3] c4c4 | 
[V:4] A,,4A,,4 | 
[V:1] B8 | 
[V:2] e8 | 
[V:3] B8 | 
[V:4] E,8 | 
[V:1] z8 | 
[V:2] c4d4 | 
[V:3] A4A4 | 
[V:4] F,4F,4 | 
[V:1] G6G2 | 
[V:2] e4z2e2- | 
[V:3] B8- | 
[V:4] E,8- | 
[V:1] G4G4 | 
[V:2] e2e2e2e2 | 
[V:3] B8 | 
[V:4] E,8 | 
[V:1] A4F2G2- | 
[V:2] fedcd2e2- | 
[V:3] z8 | 
[V:4] z8 | 
[V:1] GFEDE4 | 
[V:2] edd4^c2 | 
[V:3] z8 | 
[V:4] z8 | 
[V:1] D8 | 
[V:2] d8 | 
[V:3] z4A4 | 
[V:4] D,6D,2 | 
[V:1] z8 | 
[V:2] z8 | 
[V:3] B2A4d2- | 
[V:4] D,4D,4 | 
[V:1] z8 | 
[V:2] z8 | 
[V:3] dc/B/c3BB2- | 
[V:4] E,4C,2D,2- | 
[V:1] z4D3E | 
[V:2] z8 | 
[V:3] BAA3^G^G2 | 
[V:4] D,C,B,,A,,B,,4 | 
[V:1] F2E2D2E2- | 
[V:2] z2A3Bc2 | 
[V:3] A4F2G2- | 
[V:4] A,,4D,2C,2 | 
[V:1] EDD4^C2 | 
[V:2] d2G2A4 | 
[V:3] GFEDE4 | 
[V:4] B,,4A,,4 | 
[V:1] D8 | 
[V:2] A8 | 
[V:3] D8- | 
[V:4] z8 | 
[V:1] z8 | 
[V:2] z4d4- | 
[V:3] D8- | 
[V:4] z8 | 
[V:1] A8 | 
[V:2] d4d4 | 
[V:3] D8 | 
[V:4] z8 | 
[V:1] A4c4 | 
[V:2] f4c4 | 
[V:3] z8 | 
[V:4] z8 | 
[V:1] G4B4- | 
[V:2] e8 | 
[V:3] z4B4- | 
[V:4] E,8 | 
[V:1] B8 | 
[V:2] z8 | 
[V:3] B4B4 | 
[V:4] E,4G,4 | 
[V:1] z4A4 | 
[V:2] z8 | 
[V:3] d4A4 | 
[V:4] D,4F,4- | 
[V:1] A2A2c2c2 | 
[V:2] A4A2A2 | 
[V:3] c8 | 
[V:4] F,8 | 
[V:1] G4B4- | 
[V:2] c2c2G4 | 
[V:3] z8 | 
[V:4] z4E,4 | 
[V:1] B8 | 
[V:2] B8 | 
[V:3] B4B2B2 | 
[V:4] E,2E,2G,2G,2 | 
[V:1] z4A4 | 
[V:2] z8 | 
[V:3] d2d2A4 | 
[V:4] D,4F,4- | 
[V:1] A2A2c3B | 
[V:2] A4A2A2 | 
[V:3] c8 | 
[V:4] F,8 | 
[V:1] A2G2F4 | 
[V:2] c2c2d4 | 
[V:3] z8 | 
[V:4] z8 | 
[V:1] E8 | 
[V:2] e8 | 
[V:3] A4A2A2 | 
[V:4] z4A,,4 | 
[V:1] z8 | 
[V:2] z8 | 
[V:3] c3BA2G2 | 
[V:4] A,,2A,,2C,2C,2 | 
[V:1] z4G4 | 
[V:2] z4B4 | 
[V:3] F4E4 | 
[V:4] D,4E,4 | 
[V:1] G2G2E2G2- | 
[V:2] c6c2 | 
[V:3] G4G4- | 
[V:4] C,8 | 
[V:1] GFEDC2c2- | 
[V:2] c4c4 | 
[V:3] G4A4- | 
[V:4] C,4F,4- | 
[V:1] c2B2A4 | 
[V:2] c4d4 | 
[V:3] A4A4 | 
[V:4] F,4F,4 | 
[V:1] G8 | 
[V:2] e4z4 | 
[V:3] B4G4 | 
[V:4] E,6D,2 | 
[V:1] z4G4 | 
[V:2] e4d2d2 | 
[V:3] G2G2D4 | 
[V:4] C,4B,,4 | 
[V:1] c4c4 | 
[V:2] c3d/e/f2e2- | 
[V:3] z2A2A2A2 | 
[V:4] A,,8 | 
[V:1] B4z2G2 | 
[V:2] edd4cB | 
[V:3] D4D2E2 | 
[V:4] G,,8 | 
[V:1] A2B2c4 | 
[V:2] A2G2A4 | 
[V:3] F2G3^F^F2 | 
[V:4] z8 | 
[V:1] B8 | 
[V:2] G4z2d2 | 
[V:3] G8 | 
[V:4] z8 | 
[V:1] G4A3G | 
[V:2] e4f3e | 
[V:3] z8 | 
[V:4] z8 | 
[V:1] F2E2D4 | 
[V:2] dcc4B2 | 
[V:3] z8 | 
[V:4] z4G,,4 | 
[V:1] C8 | 
[V:2] c4e4 | 
[V:3] G4G4- | 
[V:4] C,8- | 
[V:1] z4C4 | 
[V:2] e6e2 | 
[V:3] G2G2E2E2 | 
[V:4] C,4C,4 | 
[V:1] F6F2 | 
[V:2] d4d4 | 
[V:3] F4F4 | 
[V:4] D,4D,4 | 
[V:1] F4F4 | 
[V:2] c4c4 | 
[V:3] A8 | 
[V:4] F,4F,4 | 
[V:1] G4G4 | 
[V:2] e3dedcB | 
[V:3] z4E4 | 
[V:4] C,8 | 
[V:1] A6G2 | 
[V:2] A8 | 
[V:3] F6G2 | 
[V:4] z4D,4- | 
[V:1] F4E4 | 
[V:2] z4c4 | 
[V:3] A4E4 | 
[V:4] D,4C,4 | 
[V:1] D2F4ED | 
[V:2] A4B4 | 
[V:3] F8 | 
[V:4] D,4D,4 | 
[V:1] C8 ||  
[V:2] A8 ||  
[V:3] E8 ||  
[V:4] A,,8 ||  
[V:1]  [K:C] [K:clef=treble][M:2/1]z8 | 
[V:2]  [K:C] [K:clef=treble-8][M:2/1]z8 | 
[V:3]  [K:C] [K:clef=treble-8][M:2/1]z4G4- | 
[V:4]  [K:C] [K:clef=bass][M:2/1]C,6C,2 | 
[V:1] z8 | 
[V:2] z8 | 
[V:3] G2G2G2G2 | 
[V:4] C,2C,2G,,4 | 
[V:1] z8 | 
[V:2] z8 | 
[V:3] D4D4 | 
[V:4] G,,4B,,3G,, | 
[V:1] z8 | 
[V:2] z8 | 
[V:3] F3DA4- | 
[V:4] D,8 | 
[V:1] z8 | 
[V:2] z8 | 
[V:3] A4z4 | 
[V:4] z2D,4C,2 | 
[V:1] z8 | 
[V:2] z8 | 
[V:3] z2A4G2 | 
[V:4] D,4B,,4 | 
[V:1] z2E4D2 | 
[V:2] z8 | 
[V:3] A4F4 | 
[V:4] A,,4z4 | 
[V:1] E4C4 | 
[V:2] z4z2A2- | 
[V:3] E8 | 
[V:4] z4A,,4 | 
[V:1] B,4z2C2- | 
[V:2] A2G2A4 | 
[V:3] z4E4 | 
[V:4] E,4A,,4- | 
[V:1] C2D2E2F2 | 
[V:2] F4E4 | 
[V:3] A4G4- | 
[V:4] A,,2B,,2C,3D, | 
[V:1] G3ABcB2- | 
[V:2] z2e4e2 | 
[V:3] G4G4 | 
[V:4] E,6E,2 | 
[V:1] BAA4^G2 | 
[V:2] e4e4 | 
[V:3] c4B4 | 
[V:4] E,4E,4 | 
[V:1] A8 | 
[V:2] c3d/e/f2e2- | 
[V:3] A6G2 | 
[V:4] A,,8- | 
[V:1] z4A4 | 
[V:2] edd4^c2 | 
[V:3] F3E/D/E4 | 
[V:4] A,,8 | 
[V:1] A4F4- | 
[V:2] d8- | 
[V:3] D4z4 | 
[V:4] D,8- | 
[V:1] F2G2A2B2 | 
[V:2] d8 | 
[V:3] A4A4 | 
[V:4] D,8 | 
[V:1] c4c4 | 
[V:2] z8 | 
[V:3] F6G2 | 
[V:4] z8 | 
[V:1] c2c2c2c2 | 
[V:2] z8 | 
[V:3] A2B2c4 | 
[V:4] z8 | 
[V:1] G4z2G2 | 
[V:2] e4e2e2 | 
[V:3] c4c2c2 | 
[V:4] z8 | 
[V:1] G2G2B4 | 
[V:2] e2e2d4 | 
[V:3] c2c2G4 | 
[V:4] z8 | 
[V:1] A8 | 
[V:2] z2d2d2d2 | 
[V:3] z8 | 
[V:4] z8 | 
[V:1] A4G2G2 | 
[V:2] f4e4 | 
[V:3] z8 | 
[V:4] z8 | 
[V:1] E2A3GFE | 
[V:2] z2d2d2d2 | 
[V:3] z8 | 
[V:4] z8 | 
[V:1] D2E4DC | 
[V:2] B2c4BA | 
[V:3] z2C4D2 | 
[V:4] z8 | 
[V:1] B,2A,2B,4 | 
[V:2] G2A4^G2 | 
[V:3] E2F2E4 | 
[V:4] z8 | 
[V:1] A,8 | 
[V:2] A8 | 
[V:3] z4F4 | 
[V:4] A,,4D,4 | 
[V:1] z8 | 
[V:2] z8 | 
[V:3] G4A4 | 
[V:4] C,4F,4- | 
[V:1] z8 | 
[V:2] z8 | 
[V:3] A6A2 | 
[V:4] F,2F,2F,4 | 
[V:1] z8 | 
[V:2] z8 | 
[V:3] A4G2A2- | 
[V:4] z2F,2E,2F,2- | 
[V:1] z8 | 
[V:2] z8 | 
[V:3] ABc4B2 | 
[V:4] F,E,D,C,D,4 | 
[V:1] E4E4- | 
[V:2] z4G4- | 
[V:3] c8 | 
[V:4] C,8- | 
[V:1] E2E2E4 | 
[V:2] G4G4- | 
[V:3] z4c4 | 
[V:4] C,8- | 
[V:1] z2G2G2E2 | 
[V:2] G2G2GABc | 
[V:3] c2c2c4 | 
[V:4] C,8 | 
[V:1] F2G2C4- | 
[V:2] d4z2A2 | 
[V:3] z2G2A3G | 
[V:4] z8 | 
[V:1] C4G3A | 
[V:2] A2A2B4 | 
[V:3] F2F2E2G2- | 
[V:4] z8 | 
[V:1] B2c3BB2 | 
[V:2] d2e2d4 | 
[V:3] G2E2F2G2 | 
[V:4] z8 | 
[V:1] c8- | 
[V:2] c8- | 
[V:3] C4G4 | 
[V:4] z4C,4- | 
[V:1] c8 | 
[V:2] c8 | 
[V:3] G2G2A4 | 
[V:4] C,2C,2C,4 | 
[V:1] z8 | 
[V:2] z8 | 
[V:3] B4z2G2- | 
[V:4] D,4E,4- | 
[V:1] z8 | 
[V:2] z8 | 
[V:3] G2A2G2A2- | 
[V:4] E,2F,2E,2F,2- | 
[V:1] z8 | 
[V:2] z8 | 
[V:3] AGE2F4 | 
[V:4] F,E,E,4D,2 | 
[V:1] G8 | 
[V:2] e6d2 | 
[V:3] E4G4- | 
[V:4] E,4z2E,2- | 
[V:1] G4G4 | 
[V:2] c2B2e4 | 
[V:3] G2F2E2D2 | 
[V:4] E,2D,2C,2B,,2 | 
[V:1] c8 | 
[V:2] e8 | 
[V:3] C4E4 | 
[V:4] A,,8 | 
[V:1] B2A3^GG2 | 
[V:2] e8- | 
[V:3] G3AB4 | 
[V:4] E,8 | 
[V:1] A8 | 
[V:2] e8- | 
[V:3] A2c2A2c2- | 
[V:4] A,,8- | 
[V:1] z2c2A2c2- | 
[V:2] e8 | 
[V:3] cBAGA2E2 | 
[V:4] A,,8- | 
[V:1] cBAGA2E2 | 
[V:2] z2c2A2c2- | 
[V:3] E8- | 
[V:4] A,,8 | 
[V:1] E8- | 
[V:2] cBAGA2E2 | 
[V:3] E8 | 
[V:4] z2C,2A,,2C,2- | 
[V:1] E8 | 
[V:2] E4z2G2- | 
[V:3] z4z2E2 | 
[V:4] C,B,,A,,G,,A,,2E,,2 | 
[V:1] z2E2E2G2- | 
[V:2] GAB2E4 | 
[V:3] E2G3FED | 
[V:4] E,,8- | 
[V:1] GFEDE2B,2 | 
[V:2] z2G3AB2 | 
[V:3] E2B,2B,4 | 
[V:4] E,,8 | 
[V:1] B,8- | 
[V:2] E2G3AB2 | 
[V:3] z4z2E2 | 
[V:4] z2E,2E,2G,2- | 
[V:1] B,8 | 
[V:2] E4z4 | 
[V:3] E2G3ABc | 
[V:4] G,F,E,D,E,2B,,2 | 
[V:1] B,4B,3C | 
[V:2] z4e4 | 
[V:3] d4G4 | 
[V:4] B,,4E,4 | 
[V:1] D2E3DD2- | 
[V:2] A2c2d2G2 | 
[V:3] F2G3FD2 | 
[V:4] D,2C,2B,,4 | 
[V:1] D2^C2D4 | 
[V:2] A8 | 
[V:3] E4D4 | 
[V:4] A,,4D,4- | 
[V:1] z8 | 
[V:2] d6d2 | 
[V:3] A6A2 | 
[V:4] D,2D,2D,2D,2 | 
[V:1] z8 | 
[V:2] f3ed2c2 | 
[V:3] A2A2A4 | 
[V:4] D,4F,3E, | 
[V:1] z8 | 
[V:2] f2e3dd2 | 
[V:3] z4A4 | 
[V:4] D,2C,2F,4 | 
[V:1] z4G4- | 
[V:2] e8- | 
[V:3] B4B4 | 
[V:4] E,8- | 
[V:1] G2G2G2G2 | 
[V:2] e8- | 
[V:3] G8 | 
[V:4] E,8 | 
[V:1] G4c3B | 
[V:2] e8 | 
[V:3] c3BA2GF | 
[V:4] z4C,4- | 
[V:1] A2G2c4 | 
[V:2] z4c3d | 
[V:3] EDG4^F2 | 
[V:4] C,2B,,2A,,4 | 
[V:1] B4z2A2- | 
[V:2] e2d3cA2 | 
[V:3] G3FD2E2 | 
[V:4] G,,3A,,B,,2C,2 | 
[V:1] A2G2A3G | 
[V:2] B4z2A2- | 
[V:3] F2G2E4 | 
[V:4] D,2E,2A,,4 | 
[V:1] FEE4D2 | 
[V:2] A2A2A2A2 | 
[V:3] F8 | 
[V:4] D,8 | 
[V:1] E8- | 
[V:2] A4c3B | 
[V:3] E8- | 
[V:4] A,,6B,,2 | 
[V:1] E8- | 
[V:2] A2G2c4 | 
[V:3] E8- | 
[V:4] C,4A,,4 | 
[V:1] E8- | 
[V:2] B8- | 
[V:3] E8- | 
[V:4] E,8 | 
[V:1] E8 |]  
[V:2] B8 |]  
[V:3] E8 |]  
[V:4] E,,8 |]  



